X:1
T: Dr. Robertson (Indego)
C:Alexander Walker
R:Reel
Q: 232
K:C
M:4/4
L:1/8
|:g|ec c1/2c1/2c c2 GE|Gc Ec dD Df|ec c1/2c1/2c c2 GE|FD GF EC Cg|
ec c1/2c1/2c c2 GE|Gc Ec dD Df|ec c1/2c1/2c c2 GE|FD GF EC CF|
EG Gc Ac Gc|ec ge fd df|EG Gc Ac GE|Fa gf ec cf|
ec Gc Ec Gc|Fd Ec dD Dd|ec de cG AF|FE DG EC C:|
